; generated by PrusaSlicer 2.3.0+ on 2021-06-04 at 15:18:02 UTC


;
;

;
;
; 

; external perimeters extrusion width = 0.45mm
; perimeters extrusion width = 0.45mm
; infill extrusion width = 0.45mm
; solid infill extrusion width = 0.45mm
; top infill extrusion width = 0.40mm
; first layer extrusion width = 0.42mm

M73 P0 R168
M201 X1250 Y1250 Z400 E5000 ; sets maximum accelerations, mm/sec^2
M203 X180 Y180 Z12 E80 ; sets maximum feedrates, mm/sec
M204 P1250 R1250 T1250 ; sets acceleration (P, T) and retract acceleration (R), mm/sec^2
M205 X8.00 Y8.00 Z2.00 E10.00 ; sets the jerk limits, mm/sec
M205 S0 T0 ; sets the minimum extruding and travel feed rate, mm/sec
M107
;TYPE:Custom
G90 ; use absolute coordinates
M83 ; extruder relative mode
M104 S170 ; set extruder temp for bed leveling
M140 S60 ; set bed temp
M109 R170 ; wait for bed leveling temp
M190 S60 ; wait for bed temp
G28 ; home all without mesh bed level
G29 ; mesh bed leveling 
M104 S215 ; set extruder temp
G92 E0.0
G1 Y-2.0 X179 F2400
G1 Z3 F720
M109 S215 ; wait for extruder temp

; intro line
G1 X170 F1000
G1 Z0.2 F720
G1 X110.0 E8.0 F900
G1 X40.0 E10.0 F700
G92 E0.0

M221 S95 ; set flow
G21 ; set units to millimeters
G90 ; use absolute coordinates
M83 ; use relative distances for extrusion
M900 K0.2 ; Filament gcode LA 1.5
; ; Filament gcode LA 1.0
;LAYER_CHANGE
;Z:0.2
;HEIGHT:0.2
;BEFORE_LAYER_CHANGE
G92 E0.0
;0.2


G1 Z0.200 F9000.000
;AFTER_LAYER_CHANGE
;0.2
G1 E-3.20000 F4200.000
G1 Z0.400 F9000.000
G1 X58.220 Y45.600
G1 Z0.200
G1 E3.20000 F2400.000
M204 S800
;TYPE:Skirt
;WIDTH:0.42
G1 F1200.000
G1 X58.715 Y45.175 E0.02048
G1 X59.305 Y44.902 E0.02036
G1 X59.949 Y44.799 E0.02048
G1 X120.004 Y44.798 E1.88296
G1 X120.878 Y44.966 E0.02790
G1 X121.629 Y45.444 E0.02790
G1 X122.151 Y46.164 E0.02790
G1 X122.372 Y47.026 E0.02790
G1 X122.362 Y82.445 E1.11055
G1 X113.419 Y117.012 E1.11951
G1 X111.087 Y122.756 E0.19436
G1 X107.358 Y127.765 E0.19580
G1 X106.937 Y128.192 E0.01882
G1 X102.130 Y131.907 E0.19046
G1 X96.302 Y134.357 E0.19821
G1 X90.296 Y135.183 E0.19010
M73 P0 R167
G1 X89.696 Y135.182 E0.01882
G1 X83.710 Y134.360 E0.18946
G1 X78.030 Y131.992 E0.19294
G1 X77.609 Y131.732 E0.01550
G1 X72.832 Y127.985 E0.19037
G1 X69.148 Y123.144 E0.19075
G1 X68.857 Y122.632 E0.01846
G1 X66.581 Y117.014 E0.19004
G1 X57.686 Y82.721 E1.11083
G1 X57.623 Y82.181 E0.01704
G1 X57.623 Y47.164 E1.09792
G1 X57.684 Y46.639 E0.01657
G1 X57.858 Y46.144 E0.01645
G1 X58.186 Y45.650 E0.01860
M204 S1250
; printing object spray_mount.stl id:1 copy 0
G1 E-2.24000 F4200.000
;WIPE_START
G1 F7200.000
G1 X58.715 Y45.175 E-0.39401
G1 X59.305 Y44.902 E-0.35982
G1 X59.586 Y44.857 E-0.15816
;WIPE_END
G1 E-0.04800 F4200.000
G1 Z0.400 F9000.000
G1 X80.730 Y88.963
G1 Z0.200
G1 E3.20000 F2400.000
M204 S800
;TYPE:Perimeter
G1 F1200.000
G1 X99.270 Y88.963 E0.58130
G1 X99.270 Y91.555 E0.08129
G1 X100.537 Y92.088 E0.04309
G1 X104.904 Y95.487 E0.17351
G1 X108.255 Y99.920 E0.17425
G1 X110.363 Y105.084 E0.17488
G1 X111.082 Y110.626 E0.17523
G1 X110.363 Y116.169 E0.17523
G1 X108.255 Y121.333 E0.17488
G1 X104.904 Y125.765 E0.17423
G1 X100.537 Y129.165 E0.17353
G1 X95.454 Y131.301 E0.17288
G1 X90.000 Y132.030 E0.17252
G1 X84.546 Y131.301 E0.17252
G1 X79.463 Y129.165 E0.17288
G1 X75.096 Y125.765 E0.17353
G1 X71.745 Y121.333 E0.17423
G1 X69.637 Y116.169 E0.17488
G1 X68.918 Y110.626 E0.17523
G1 X69.637 Y105.084 E0.17523
G1 X71.745 Y99.920 E0.17488
G1 X75.096 Y95.487 E0.17425
G1 X79.463 Y92.088 E0.17351
G1 X80.730 Y91.555 E0.04309
G1 X80.730 Y89.023 E0.07940
M204 S1250
G1 E-2.24000 F4200.000
;WIPE_START
G1 F7200.000
G1 X82.376 Y89.017 E-0.91200
;WIPE_END
G1 E-0.04800 F4200.000
G1 Z0.400 F9000.000
G1 X99.647 Y91.305
G1 Z0.200
G1 E3.20000 F2400.000
M204 S800
;TYPE:External perimeter
G1 F1200.000
G1 X100.729 Y91.759 E0.03680
G1 X105.175 Y95.220 E0.17664
G1 X108.586 Y99.732 E0.17735
G1 X110.730 Y104.987 E0.17796
G1 X111.463 Y110.626 E0.17830
G1 X110.730 Y116.266 E0.17830
G1 X108.586 Y121.521 E0.17796
G1 X105.175 Y126.032 E0.17733
G1 X100.729 Y129.494 E0.17666
G1 X95.554 Y131.668 E0.17602
G1 X90.000 Y132.411 E0.17568
G1 X84.446 Y131.668 E0.17568
G1 X79.271 Y129.494 E0.17602
G1 X74.825 Y126.032 E0.17666
G1 X71.414 Y121.521 E0.17733
G1 X69.270 Y116.266 E0.17796
G1 X68.537 Y110.626 E0.17830
G1 X69.270 Y104.987 E0.17830
G1 X71.414 Y99.732 E0.17796
G1 X74.825 Y95.220 E0.17735
G1 X79.271 Y91.759 E0.17664
G1 X80.353 Y91.305 E0.03680
G1 X80.353 Y88.585 E0.08525
G1 X99.647 Y88.585 E0.60495
G1 X99.647 Y91.245 E0.08337
M204 S1250
G1 X99.731 Y91.696 F9000.000
G1 E-2.24000 F4200.000
;WIPE_START
G1 F7200.000
G1 X100.729 Y91.759 E-0.66405
G1 X101.082 Y92.034 E-0.24795
;WIPE_END
G1 E-0.04800 F4200.000
G1 Z0.400 F9000.000
G1 X102.663 Y93.886
G1 Z0.200
G1 E3.20000 F2400.000
M204 S800
;TYPE:Solid infill
;WIDTH:0.422462
G1 F1200.000
G1 X105.433 Y96.657 E0.12367
G1 X107.096 Y98.856 E0.08702
G1 X100.388 Y92.148 E0.29941
M204 S1250
G1 E-2.24000 F4200.000
;WIPE_START
G1 F7200.000
G1 X101.552 Y93.311 E-0.91200
;WIPE_END
G1 E-0.04800 F4200.000
G1 Z0.400 F9000.000
G1 X99.157 Y89.843
G1 Z0.200
G1 E3.20000 F2400.000
M204 S800
G1 F1200.000
G1 X98.559 Y89.245 E0.02668
G1 X98.022 Y89.245 E0.01694
G1 X98.987 Y90.210 E0.04306
G1 X98.987 Y90.747 E0.01694
G1 X97.485 Y89.245 E0.06702
G1 X96.949 Y89.245 E0.01694
G1 X98.987 Y91.284 E0.09098
G1 X98.987 Y91.743 E0.01449
G1 X99.779 Y92.076 E0.02712
G1 X108.175 Y100.471 E0.37469
G1 X108.545 Y101.378 E0.03091
G1 X96.412 Y89.245 E0.54150
G1 X95.875 Y89.245 E0.01694
G1 X108.915 Y102.285 E0.58197
G1 X109.285 Y103.192 E0.03091
G1 X95.338 Y89.245 E0.62244
G1 X94.802 Y89.245 E0.01694
G1 X109.655 Y104.099 E0.66292
G1 X110.025 Y105.005 E0.03091
G1 X94.265 Y89.245 E0.70339
G1 X93.728 Y89.245 E0.01694
G1 X110.154 Y105.671 E0.73309
G1 X110.234 Y106.288 E0.01963
G1 X93.191 Y89.245 E0.76062
G1 X92.655 Y89.245 E0.01694
G1 X110.314 Y106.904 E0.78815
G1 X110.394 Y107.521 E0.01963
G1 X92.118 Y89.245 E0.81568
G1 X91.581 Y89.245 E0.01694
G1 X110.474 Y108.138 E0.84321
G1 X110.554 Y108.755 E0.01963
G1 X91.044 Y89.245 E0.87074
G1 X90.508 Y89.245 E0.01694
G1 X110.634 Y109.372 E0.89827
G1 X110.714 Y109.989 E0.01963
G1 X89.971 Y89.245 E0.92580
G1 X89.434 Y89.245 E0.01694
G1 X110.794 Y110.606 E0.95333
G1 X110.738 Y111.085 E0.01525
G1 X88.897 Y89.245 E0.97475
G1 X88.361 Y89.245 E0.01694
G1 X110.676 Y111.561 E0.99595
G1 X110.614 Y112.036 E0.01512
G1 X87.824 Y89.245 E1.01716
G1 X87.287 Y89.245 E0.01694
G1 X110.552 Y112.511 E1.03836
G1 X110.491 Y112.986 E0.01512
G1 X86.750 Y89.245 E1.05956
G1 X86.214 Y89.245 E0.01694
G1 X110.429 Y113.461 E1.08076
G1 X110.367 Y113.936 E0.01512
G1 X85.677 Y89.245 E1.10197
G1 X85.140 Y89.245 E0.01694
G1 X110.306 Y114.411 E1.12317
G1 X110.244 Y114.886 E0.01512
G1 X84.603 Y89.245 E1.14437
G1 X84.067 Y89.245 E0.01694
G1 X110.182 Y115.361 E1.16558
G1 X110.121 Y115.836 E0.01512
G1 X83.530 Y89.245 E1.18678
M73 P0 R166
G1 X82.993 Y89.245 E0.01694
G1 X110.016 Y116.269 E1.20608
G1 X109.861 Y116.650 E0.01299
G1 X82.456 Y89.245 E1.22310
G1 X81.920 Y89.245 E0.01694
G1 X109.705 Y117.031 E1.24011
G1 X109.550 Y117.412 E0.01299
G1 X81.383 Y89.245 E1.25712
G1 X81.013 Y89.245 E0.01168
G1 X81.013 Y89.412 E0.00526
G1 X109.394 Y117.793 E1.26669
G1 X109.239 Y118.175 E0.01299
G1 X81.013 Y89.949 E1.25975
G1 X81.013 Y90.486 E0.01694
G1 X109.083 Y118.556 E1.25281
G1 X108.927 Y118.937 E0.01299
G1 X81.013 Y91.022 E1.24586
M73 P1 R166
G1 X81.013 Y91.559 E0.01694
G1 X108.772 Y119.318 E1.23892
G1 X108.616 Y119.699 E0.01299
G1 X80.764 Y91.847 E1.24307
G1 X80.386 Y92.006 E0.01294
G1 X108.461 Y120.081 E1.25299
G1 X108.305 Y120.462 E0.01299
G1 X80.009 Y92.165 E1.26291
G1 X79.631 Y92.324 E0.01294
G1 X108.150 Y120.843 E1.27283
G1 X107.988 Y121.218 E0.01289
G1 X79.324 Y92.554 E1.27929
G1 X79.022 Y92.789 E0.01207
G1 X107.757 Y121.523 E1.28244
G1 X107.525 Y121.829 E0.01209
G1 X78.721 Y93.024 E1.28560
G1 X78.419 Y93.259 E0.01207
G1 X107.294 Y122.135 E1.28875
G1 X107.063 Y122.440 E0.01209
G1 X78.117 Y93.494 E1.29191
G1 X77.815 Y93.729 E0.01207
G1 X106.832 Y122.746 E1.29506
G1 X106.601 Y123.052 E0.01209
G1 X77.513 Y93.964 E1.29822
G1 X77.211 Y94.199 E0.01207
G1 X106.370 Y123.357 E1.30138
G1 X106.139 Y123.663 E0.01209
G1 X76.910 Y94.434 E1.30453
G1 X76.608 Y94.669 E0.01207
G1 X105.908 Y123.968 E1.30769
G1 X105.677 Y124.274 E0.01209
G1 X76.306 Y94.904 E1.31084
G1 X76.004 Y95.139 E0.01207
G1 X105.445 Y124.580 E1.31400
G1 X105.214 Y124.885 E0.01209
G1 X75.702 Y95.373 E1.31715
G1 X75.401 Y95.608 E0.01207
G1 X104.983 Y125.191 E1.32031
G1 X104.752 Y125.497 E0.01209
G1 X75.146 Y95.890 E1.32137
G1 X74.915 Y96.196 E0.01209
G1 X104.466 Y125.747 E1.31892
G1 X104.164 Y125.982 E0.01207
M73 P1 R165
G1 X74.684 Y96.502 E1.31576
G1 X74.453 Y96.807 E0.01209
G1 X103.863 Y126.217 E1.31260
G1 X103.561 Y126.452 E0.01207
G1 X74.221 Y97.113 E1.30945
G1 X73.990 Y97.419 E0.01209
G1 X103.259 Y126.687 E1.30629
G1 X102.957 Y126.922 E0.01207
G1 X73.759 Y97.724 E1.30314
G1 X73.528 Y98.030 E0.01209
G1 X102.655 Y127.157 E1.29998
G1 X102.354 Y127.392 E0.01207
G1 X73.297 Y98.336 E1.29683
G1 X73.066 Y98.641 E0.01209
G1 X102.052 Y127.627 E1.29367
G1 X101.750 Y127.862 E0.01207
G1 X72.835 Y98.947 E1.29052
G1 X72.604 Y99.253 E0.01209
G1 X101.448 Y128.097 E1.28736
G1 X101.147 Y128.332 E0.01207
G1 X72.373 Y99.558 E1.28421
G1 X72.142 Y99.864 E0.01209
G1 X100.845 Y128.567 E1.28105
G1 X100.543 Y128.802 E0.01207
G1 X71.937 Y100.197 E1.27670
G1 X71.782 Y100.578 E0.01299
G1 X100.203 Y128.999 E1.26847
G1 X99.825 Y129.158 E0.01294
G1 X71.626 Y100.959 E1.25854
G1 X71.471 Y101.340 E0.01299
G1 X99.447 Y129.316 E1.24862
G1 X99.069 Y129.475 E0.01294
G1 X71.315 Y101.721 E1.23869
G1 X71.160 Y102.103 E0.01299
G1 X98.691 Y129.634 E1.22877
G1 X98.313 Y129.793 E0.01294
G1 X71.004 Y102.484 E1.21884
G1 X70.849 Y102.865 E0.01299
G1 X97.935 Y129.952 E1.20892
G1 X97.557 Y130.111 E0.01294
G1 X70.693 Y103.246 E1.19899
G1 X70.537 Y103.627 E0.01299
G1 X97.179 Y130.269 E1.18907
G1 X96.802 Y130.428 E0.01294
G1 X70.382 Y104.008 E1.17914
G1 X70.226 Y104.390 E0.01299
G1 X96.424 Y130.587 E1.16922
G1 X96.046 Y130.746 E0.01294
G1 X70.071 Y104.771 E1.15929
G1 X69.915 Y105.152 E0.01299
G1 X95.668 Y130.905 E1.14937
G1 X95.379 Y131.026 E0.00988
G1 X95.267 Y131.041 E0.00356
G1 X69.852 Y105.626 E1.13430
G1 X69.791 Y106.101 E0.01512
G1 X94.794 Y131.104 E1.11593
G1 X94.320 Y131.167 E0.01507
G1 X69.729 Y106.576 E1.09755
M73 P2 R165
G1 X69.667 Y107.051 E0.01512
G1 X93.847 Y131.231 E1.07917
G1 X93.373 Y131.294 E0.01507
G1 X69.605 Y107.526 E1.06079
M73 P2 R164
G1 X69.544 Y108.001 E0.01512
G1 X92.900 Y131.357 E1.04242
G1 X92.427 Y131.421 E0.01507
G1 X69.482 Y108.476 E1.02404
G1 X69.420 Y108.951 E0.01512
G1 X91.953 Y131.484 E1.00566
G1 X91.480 Y131.547 E0.01507
G1 X69.359 Y109.426 E0.98728
G1 X69.297 Y109.901 E0.01512
G1 X91.006 Y131.611 E0.96891
G1 X90.533 Y131.674 E0.01507
G1 X69.235 Y110.377 E0.95053
G1 X69.203 Y110.627 E0.00796
G1 X69.241 Y110.919 E0.00930
G1 X90.059 Y131.737 E0.92915
G1 X90.000 Y131.745 E0.00189
G1 X89.458 Y131.673 E0.01726
G1 X69.321 Y111.536 E0.89874
G1 X69.401 Y112.152 E0.01963
G1 X88.838 Y131.590 E0.86751
G1 X88.219 Y131.507 E0.01973
G1 X69.481 Y112.769 E0.83628
G1 X69.561 Y113.386 E0.01963
G1 X87.599 Y131.424 E0.80506
G1 X86.980 Y131.341 E0.01973
G1 X69.641 Y114.003 E0.77383
G1 X69.721 Y114.620 E0.01963
G1 X86.360 Y131.258 E0.74260
G1 X85.740 Y131.176 E0.01973
G1 X69.802 Y115.237 E0.71137
G1 X69.882 Y115.854 E0.01963
G1 X85.121 Y131.093 E0.68014
G1 X84.621 Y131.026 E0.01591
G1 X84.442 Y130.951 E0.00613
G1 X70.138 Y116.647 E0.63841
G1 X70.508 Y117.553 E0.03091
G1 X83.516 Y130.562 E0.58058
G1 X82.590 Y130.173 E0.03169
G1 X70.878 Y118.460 E0.52274
G1 X71.248 Y119.367 E0.03091
G1 X81.665 Y129.784 E0.46491
G1 X80.739 Y129.395 E0.03169
G1 X71.618 Y120.274 E0.40707
G1 X71.988 Y121.181 E0.03091
G1 X79.813 Y129.006 E0.34924
G1 X79.607 Y128.919 E0.00705
G1 X77.722 Y127.451 E0.07542
G1 X72.764 Y122.494 E0.22125
M204 S1250
; stop printing object spray_mount.stl id:1 copy 0
; printing object eraser_mount.stl id:0 copy 0
G1 E-2.24000 F4200.000
;WIPE_START
G1 F7200.000
G1 X73.928 Y123.657 E-0.91200
;WIPE_END
G1 E-0.04800 F4200.000
G1 Z0.400 F9000.000
G1 X60.787 Y81.388
G1 Z0.200
G1 E3.20000 F2400.000
M204 S800
;TYPE:Perimeter
;WIDTH:0.42
G1 F1200.000
G1 X60.787 Y47.963 E1.04804
G1 X119.213 Y47.963 E1.83190
G1 X119.213 Y81.388 E1.04804
G1 X60.847 Y81.388 E1.83002
M204 S1250
G1 X60.410 Y81.765 F9000.000
M204 S800
;TYPE:External perimeter
G1 F1200.000
G1 X60.410 Y47.585 E1.07169
G1 X119.590 Y47.585 E1.85555
G1 X119.590 Y81.765 E1.07169
G1 X60.470 Y81.765 E1.85367
M204 S1250
G1 X60.547 Y81.390 F9000.000
G1 E-2.24000 F4200.000
;WIPE_START
G1 F7200.000
G1 X60.467 Y80.120 E-0.91200
;WIPE_END
G1 E-0.04800 F4200.000
G1 Z0.400 F9000.000
G1 X118.335 Y48.076
G1 Z0.200
G1 E3.20000 F2400.000
M204 S800
;TYPE:Solid infill
;WIDTH:0.421179
G1 F1200.000
G1 X118.930 Y48.671 E0.02647
G1 X118.930 Y49.206 E0.01683
G1 X117.970 Y48.245 E0.04272
G1 X117.435 Y48.245 E0.01683
G1 X118.930 Y49.741 E0.06651
G1 X118.930 Y50.276 E0.01683
G1 X116.900 Y48.245 E0.09030
G1 X116.365 Y48.245 E0.01683
G1 X118.930 Y50.811 E0.11410
G1 X118.930 Y51.345 E0.01683
G1 X115.830 Y48.245 E0.13789
G1 X115.295 Y48.245 E0.01683
G1 X118.930 Y51.880 E0.16169
G1 X118.930 Y52.415 E0.01683
G1 X114.760 Y48.245 E0.18548
G1 X114.225 Y48.245 E0.01683
G1 X118.930 Y52.950 E0.20928
G1 X118.930 Y53.485 E0.01683
G1 X113.690 Y48.245 E0.23307
G1 X113.155 Y48.245 E0.01683
G1 X118.930 Y54.020 E0.25686
G1 X118.930 Y54.555 E0.01683
G1 X112.620 Y48.245 E0.28066
G1 X112.085 Y48.245 E0.01683
G1 X118.930 Y55.090 E0.30445
G1 X118.930 Y55.625 E0.01683
G1 X111.551 Y48.245 E0.32825
G1 X111.016 Y48.245 E0.01683
G1 X118.930 Y56.160 E0.35204
G1 X118.930 Y56.695 E0.01683
G1 X110.481 Y48.245 E0.37584
G1 X109.946 Y48.245 E0.01683
G1 X118.930 Y57.230 E0.39963
G1 X118.930 Y57.765 E0.01683
G1 X109.411 Y48.245 E0.42342
G1 X108.876 Y48.245 E0.01683
G1 X118.930 Y58.300 E0.44722
G1 X118.930 Y58.835 E0.01683
G1 X108.341 Y48.245 E0.47101
G1 X107.806 Y48.245 E0.01683
G1 X118.930 Y59.370 E0.49481
G1 X118.930 Y59.904 E0.01683
G1 X107.271 Y48.245 E0.51860
G1 X106.736 Y48.245 E0.01683
G1 X118.930 Y60.439 E0.54240
G1 X118.930 Y60.974 E0.01683
G1 X106.201 Y48.245 E0.56619
M73 P2 R163
G1 X105.666 Y48.245 E0.01683
G1 X118.930 Y61.509 E0.58998
G1 X118.930 Y62.044 E0.01683
G1 X105.131 Y48.245 E0.61378
G1 X104.596 Y48.245 E0.01683
G1 X118.930 Y62.579 E0.63757
G1 X118.930 Y63.114 E0.01683
G1 X104.061 Y48.245 E0.66137
G1 X103.526 Y48.245 E0.01683
G1 X118.930 Y63.649 E0.68516
G1 X118.930 Y64.184 E0.01683
G1 X102.991 Y48.245 E0.70896
G1 X102.457 Y48.245 E0.01683
G1 X118.930 Y64.719 E0.73275
G1 X118.930 Y65.254 E0.01683
G1 X101.922 Y48.245 E0.75654
G1 X101.387 Y48.245 E0.01683
G1 X118.930 Y65.789 E0.78034
G1 X118.930 Y66.324 E0.01683
G1 X100.852 Y48.245 E0.80413
G1 X100.317 Y48.245 E0.01683
G1 X118.930 Y66.859 E0.82793
G1 X118.930 Y67.394 E0.01683
G1 X99.782 Y48.245 E0.85172
G1 X99.247 Y48.245 E0.01683
G1 X118.930 Y67.929 E0.87552
G1 X118.930 Y68.464 E0.01683
G1 X98.712 Y48.245 E0.89931
G1 X98.177 Y48.245 E0.01683
G1 X118.930 Y68.998 E0.92310
G1 X118.930 Y69.533 E0.01683
G1 X97.642 Y48.245 E0.94690
G1 X97.107 Y48.245 E0.01683
G1 X118.930 Y70.068 E0.97069
G1 X118.930 Y70.603 E0.01683
G1 X96.572 Y48.245 E0.99449
G1 X96.037 Y48.245 E0.01683
G1 X118.930 Y71.138 E1.01828
G1 X118.930 Y71.673 E0.01683
G1 X95.502 Y48.245 E1.04208
G1 X94.967 Y48.245 E0.01683
G1 X118.930 Y72.208 E1.06587
G1 X118.930 Y72.743 E0.01683
G1 X94.432 Y48.245 E1.08966
G1 X93.898 Y48.245 E0.01683
G1 X118.930 Y73.278 E1.11346
G1 X118.930 Y73.813 E0.01683
G1 X93.363 Y48.245 E1.13725
G1 X92.828 Y48.245 E0.01683
G1 X118.930 Y74.348 E1.16105
G1 X118.930 Y74.883 E0.01683
G1 X92.293 Y48.245 E1.18484
M73 P3 R163
G1 X91.758 Y48.245 E0.01683
G1 X118.930 Y75.418 E1.20864
G1 X118.930 Y75.953 E0.01683
G1 X91.223 Y48.245 E1.23243
G1 X90.688 Y48.245 E0.01683
G1 X118.930 Y76.488 E1.25622
G1 X118.930 Y77.023 E0.01683
G1 X90.153 Y48.245 E1.28002
G1 X89.618 Y48.245 E0.01683
G1 X118.930 Y77.557 E1.30381
G1 X118.930 Y78.092 E0.01683
G1 X89.083 Y48.245 E1.32761
